logos/vultr-icon.svg

<?xml version="1.0" encoding="UTF-8"?>
<svg width="256px" height="221px" viewBox="0 0 256 221" version="1.1" xmlns="http://www.w3.org/2000/svg" preserveAspectRatio="xMidYMid">
    <title>Vultr</title>
    <g>
        <path d="M89.1733333,6.0952381 C86.874139,2.33352357 82.7933905,0.0280159095 78.3847619,0 L12.8,0 C5.7307552,0 0,5.7307552 0,12.8 C0,15.2130355 0.675664961,17.5778629 1.95047619,19.6266667 L18.8342857,44.4342857 L103.253333,26.1485714 L89.1733333,6.0952381 Z" fill="#C9F4FF"></path>
        <path d="M103.619048,26.6361905 C101.291688,22.8735278 97.1936976,20.571286 92.7695238,20.5409524 L27.4285714,20.5409524 C22.6393949,20.320049 18.131746,22.8066999 15.7642166,26.9756104 C13.3966872,31.1445209 13.5702468,36.2896359 16.2133333,40.2895238 L35.047619,70.1561905 L122.270476,56.5028571 L103.619048,26.6361905 Z" fill="#51B9FF"></path>
        <path d="M34.2552381,68.9371429 C32.1124451,65.5039472 31.6846074,61.270606 33.0971429,57.4780952 C35.0564582,52.4771108 39.9172706,49.2203665 45.287619,49.3104762 L110.628571,49.3104762 C115.055826,49.3291676 119.159076,51.6343641 121.478095,55.4057143 L180.175238,148.48 C181.450049,150.528804 182.125714,152.893631 182.125714,155.306667 C182.116105,157.718347 181.441174,160.080604 180.175238,162.133333 L147.382857,214.125714 C145.021988,217.834743 140.929991,220.080732 136.533333,220.080732 C132.136676,220.080732 128.044679,217.834743 125.68381,214.125714 L34.2552381,68.9371429 Z" fill="#007BFC"></path>
        <path d="M199.558095,98.6819048 C201.918964,102.390933 206.010962,104.636923 210.407619,104.636923 C214.804276,104.636923 218.896274,102.390933 221.257143,98.6819048 L232.533333,80.8228571 L254.049524,46.6895238 C255.324335,44.64072 256,42.2758927 256,39.8628571 C255.990391,37.4511772 255.31546,35.0889199 254.049524,33.0361905 L236.982857,6.0952381 C234.655497,2.33257539 230.557507,0.0303336047 226.133333,0 L160.548571,0 C157.1538,0 153.89807,1.34856756 151.497605,3.7490332 C149.097139,6.14949884 147.748,9.40522893 147.748,12.8 C147.725099,15.22497 148.425426,17.6018355 149.76,19.6266667 L199.558095,98.6819048 Z" fill="#007BFC"></path>
    </g>
</svg>

<svg preserveAspectRatio="xMidYMid" viewBox="0 0 256 221" xmlns="http://www.w3.org/2000/svg">
  <path fill="#C9F4FF" d="M89.173 6.095A12.739 12.739 0 0 0 78.385 0H12.8C5.73 0 0 5.73 0 12.8c0 2.413.676 4.778 1.95 6.827l16.884 24.807 84.42-18.285-14.08-20.054Z"/>
  <path fill="#51B9FF" d="M103.619 26.636a12.861 12.861 0 0 0-10.85-6.095H27.43A12.739 12.739 0 0 0 16.213 40.29l18.835 29.866 87.222-13.653-18.651-29.867Z"/>
  <path fill="#007BFC" d="M34.255 68.937a13.044 13.044 0 0 1-1.158-11.459 12.861 12.861 0 0 1 12.19-8.168h65.342a12.8 12.8 0 0 1 10.85 6.096l58.696 93.074a12.922 12.922 0 0 1 1.95 6.827 13.105 13.105 0 0 1-1.95 6.826l-32.792 51.993a12.86 12.86 0 0 1-21.7 0L34.256 68.937Z"/>
  <path fill="#007BFC" d="M199.558 98.682a12.861 12.861 0 0 0 21.7 0l11.275-17.86L254.05 46.69a12.922 12.922 0 0 0 1.95-6.827 13.105 13.105 0 0 0-1.95-6.827l-17.067-26.94A12.861 12.861 0 0 0 226.133 0H160.55a12.8 12.8 0 0 0-12.801 12.8 12.196 12.196 0 0 0 2.012 6.827l49.798 79.055Z"/>
</svg>
